X:109
T:Flax in Bloom
Z: id:dc-reel-101
M:C
L:1/8
K:D Major
z|D2FD FAAf|gefd edBd|A2FA dfaf|gefd edBd|!
D2FD FAAf|gefd edBd|A2FA ABdf|afeg fdd:|!
e|f2df e2ce|dcdA BAFA|DFAd FAdf|gefd edBd|!
f2df e2ce|dcdA BAFA|DFAd FAdf|afeg fdd:|!

